X:1
T:Non mi togli
T:Non mi togli
T:Marco Antonio Ingegneri
T:Source : Harmonia celeste---Anversa---P.Phalesio & G Bellero---1583. Editor: André Vierendeels (18/11/13).
C:Marco Antonio Ingegneri
%%score [ 1 2 [ 3 4 ] ]
L:1/8
Q:1/4=120
M:4/4
K:F
V:1 treble nm="Canto" snm="C"
V:2 treble nm="Alto" snm="A"
V:3 treble-8 nm="Tenor 1" snm="T 1"
V:4 treble-8 nm="Tenor 2" snm="T 2"
V:1
 z4 c4- | c4 A4 | c8 | B4 A4 | G4 A4 | z8 | c6 A2 | d6 c2- | c2 B2 c4 | z2 c2 c2 f2- | f2 e4 d2 | %11
w: Non|_ mi|to-|gl'il ben|mi- o,||chi non|ar- de|_ d'a- mor,|chi non dar-|* de d'ar-|
 e4 A4 | d2 d2 c4- | c4 c4 | A4 G2 F2 | E4 F4 | z4 A4- | A4 A4 | B4 B4- | B4 B4 | A6 A2 | A4 A4 | %22
w: mor, co-|me fac' i-|* o,|co- me fac'|i- o,|ma|_ per-|che non|_ fia|mai che|nul- l'o|
 A4 A2 c2 | c4 d4 | e4 f4 | e4 e4 | z4 d4 | A4 d4 | c4 c2 A2- | A2 GF G4 | A8 | z4 f4 | f4 d4 | %33
w: po- co'ag- gua-|gl'il mi-|o gran|fo- co,|se|non e'in|gius- t'a- mo-||re,,|io|son hau-|
 c6 c2 | c4 f4 | e6 f2 | d8 | c4 z2 f2 | f4 d4 | c6 c2 | c4 f4 | e6 f2 | d8 | c8- | c8 |: z8 | z8 | %47
w: ro del-|la mia|don- n'il|co-|re, io|sol hau-|ro del-|la mia|don- n'il|co-|re,|_|||
 z4 c4- | c4 A4 | c8 | B4 A4 | G4 A4 | z8 | c6 A2 | d6 c2- | c2 B2 c4 | z2 c2 c2 f2- | f2 e4 d2 | %58
w: dun-|* che|lass'|il ben|mi- o,||chi non|ar- de|_ d'a- mor,|chi non ar-|* de d'a-|
 e2 e2 f2 f2 | e4 e4 |1 z8 :|2 f2 e4 d2 || e4 A4 | d2 d2 c4- | c4 c4 | A4 G2 F2 | E4 F4 | %67
w: mor, co- me fac'|i- o,||* de d'a-|mor, co-|me fac' i-|* o,|co- me fac'|i- o,|
 F4 E2 F2 | G8 | A8 |] %70
w: co- me fac|i-|o.|
V:2
 z8 | F8 | E4 F4 | D4 F4 | E4 F4 | z4 G4- | G2 E2 A4 | F2 G2 A4 | z4 G4- | G2 E2 A4 | A4 G4 | %11
w: |mi|to- gl'il|ben mi-|o, chi|non|_ ar- de|d'a- mor, chi|non|_ ar- de|d'a- mor,|
 G4 c4 | B4 A4 | G4 A4 | F4 E2 F2 | G4 A4 | z4 F4- | F4 E4 | G4 F4- | F4 G4 | C4 D4 | C4 F4 | %22
w: co- me|fac' i-|o, co-|me fac' i-|o, ma|per-|_ che|non fia|_ mai|che nul-|l'o po-|
 E4 E2 A2 | A4 A4 | c6 c2 | c4 c4 | z4 A4 | F4 G4 | A4 A4 | D6 E2 | F4 E4 | z4 A4 | A4 G4 | A6 A2 | %34
w: co'ag- gua- gh'il|mi- o|gran fo-|co, se|non|e'in gius-|t'a- mo-|re, *|* io|sol|hau- ro|del- la|
 A4 A4 | c4 c2 A2- | A2 GF G4 | A4 z2 A2 | A4 G4 | A6 A2 | A4 A4 | c4 c2 A2- | A2 GF G4 | A6 GF | %44
w: mia don-|n'il co- re,||io sol|hau- ro|del- la|mia don-|n'il co- re,|||
 G8 |: z8 | z8 | z8 | z4 F4 | E4 F4 | D4 F4 | E4 F4 | z4 G4- | G2 E2 A4 | F2 G2 A4 | z4 G4- | %56
w: dun||||che|lass' il|ben mi-|o, chi|non|_ ar- de|d'a- mor, chi|non|
 G2 E2 A4 | A4 G2 G2- | G2 c2 A2 B2 | c4 c4 |1 z8 :|2 A4 G4 || G4 c4 | B4 A4 | G4 A4 | F4 E2 F2 | %66
w: _ ar- de|d'a- mor, co-|_ me fac' i-|o, de-||d'a- mor,|co- me|fac' i-|o, co-|me fac' i-|
 G4 A2 A2- | A2 A2 G2 F2- | F2 ED E4 | F8 |] %70
w: o, co- me|* fac i- o.||Non|
V:3
 c8 | A4 d4 | c4 A4 | G4 F4 | z2 c2 c2 f2- | f2 e4 d2 | e4 f4 | d4 e4 | f4 e4 | z8 | z8 | z4 f4 | %12
w: mi|ti- gl'il|ben mi-|o, chi|non ar- de|* d'a- mor,|co- me|fac' i-|o, co-|||me|
 d2 g4 f2- | f2 e2 f4 | c4 c2 A2 | c4 c4 | z4 d4- | d4 ^c4 | d4 d4- | d4 d4 | f6 f2 | e4 d4 | %22
w: fac' i- o,|* * co-|me fac' i-|o, ma|per-|_ che|non fia|_ mai|che nul-|l'o po-|
 c4 c2 c2 | f4 f4 | e4 a4 | g4 g4 | z4 f4- | f4 d4 | e4 f4 | f4 d4- | d4 ^c4 | z4 d4 | d6 d2 | %33
w: co'ag- gua- gh'il|mi- o|gran fo-|co, se|non|_ e'in|gius- t'a-|mo- re,|* io|sol|hau- ro|
 f4 e4 | e4 f4 | g4 a2 f2- | fe dc d4 | e4 z2 d2 | d4 d4 | f4 e4 | e4 f4 | g4 a2 f2- | fe dc d4 | %43
w: del- la|mia don-|n'il co- re,||io sol|hau- ro|del- la|mia don-|n'il co- re,||
 e4 f4- | f4 e4 |: f8 | d4 f4 | e4 f2 c2- | c2 A2 d4 | c4 A4 | G4 F4 | z2 c2 c2 f2- | f2 e4 d2 | %53
w: dun- che|* lass'|il|ben mi-|o, dun- che|* lass' il|ben mi-|o, chi|non ar- de|* d'a- mor,|
 e4 f4 | d4 e4 | f4 e4 | z8 | z8 | z8 | z4 g4- |1 g4 e4 :|2 z8 || z4 f4 | d2 g4 f2- | f2 e2 f4 | %65
w: co- me|fac' i-|o, dun-||||che|co- _||me|fac' i- o,|* * co-|
 c4 c2 A2 | c4 c4 | c4 c2 A2 | c8 | c8 |] %70
w: me fac' i-|o, co-|me fac' i-|o.|Chi|
V:4
 z8 | z8 | z8 | z8 | c4 A2 d2- | d2 c4 =B2 | c4 F4 | B4 A4 | d4 c4 | c4 A2 d2- | d2 c4 B2 | c4 F4 | %12
w: ||||non ar- de|* d'a- mor,|co- me|fac' i-|o, chi|non ar- de|* d'a- mor,|co- me|
w: ||||||||||||
 B2 G2 A3 B | c4 F4 | F4 C2 D2 | C4 F4 | z4 D4- | D4 A4 | G4 B4- | B4 G4 | F4 D4 | A4 D4 | %22
w: fac' i- o, *|* co-|me fac' i-|o, ma|per|_ che|non fia|_ mai|che nul-|l'o po-|
w: ||||||||||
 A4 A2 F2 | F4 D4 | A4 F4 | c4 c4 | z4 d4 | d4 B4 | A4 F4 | B8 | A8 | z4 D4 | D4 B4 | A6 A2 | %34
w: co'ag- gau- gh'il|mi- o|gran fo-|co, se|non|e'in gius-|t'a- mo-|re,|io|sol|hau- ro|del- la|
w: ||||||||||||
 A4 d4 | c6 d2 | B8 | A4 z2 D2 | D4 B4 | A6 A2 | A4 d4 | c6 d2 | B8 | A8 | c8 |: A4 B4- | %46
w: mia don-|n'il co-|re,|io sol|hau- ro|del- la|mia don-|n'il co-|re,|dun-|che|lass' il|
w: ||||||||||||
 B2 B2 A4 | G4 F4 | z8 | z8 | z8 | c4 A2 d2- | d2 c4 B2 | c4 F4 | B4 A4 | d4 c4 | c4 A2 d2- | %57
w: _ ben mi-|o, chi||||non ar- de|* d'a- mor,|co- me|fac' i-|o, chi|non ar- de|
w: |||||||||||
 d2 c4 B2 | c2 A2 d2 d2 | c4 c4 |1 c8 :|2 d2 c4 B2 || c4 F4 | B2 G2 A3 B | c4 F4 | F4 C2 D2 | %66
w: * d'a- mor,|co- me fac' i-|o, 1)dun-|me|||fac' i- o. *|* co-|me fac' i-|
w: |||2)ar-|* de d'a-|mor, co-||||
 C4 F4 | F4 C2 D2 | C8 | F8 |] %70
w: o, co-|me fac' i-|o.||
w: ||||

